theme-base/src/main/assets/themes/mapsforgeV3/base/symbols/db_poi_toilets.svg

<svg enable-background="new 0 0 48 48" height="48" viewBox="0 0 48 48" width="48" xmlns="http://www.w3.org/2000/svg"><path d="m8 44v-15h-3v-11c0-2.2 1.8-4 4-4h6c2.2 0 4 1.8 4 4v11h-3v15zm32 0v-12h6l-5.08-15.26c-.561-1.64-2.08-2.74-3.8-2.74h-.24c-1.72 0-3.26 1.1-3.8 2.74l-5.08 15.26h6v12zm-28-32c2.22 0 4-1.78 4-4s-1.78-4-4-4-4 1.78-4 4 1.78 4 4 4zm25 0c2.221 0 4-1.78 4-4s-1.779-4-4-4-4 1.78-4 4 1.779 4 4 4zm-14 32h2v-40h-2z"/></svg>

<?xml version="1.0" encoding="utf-8"?>
<!-- Generator: Adobe Illustrator 15.0.2, SVG Export Plug-In . SVG Version: 6.00 Build 0)  -->
<!DOCTYPE svg PUBLIC "-//W3C//DTD SVG 1.1//EN" "http://www.w3.org/Graphics/SVG/1.1/DTD/svg11.dtd">
<svg version="1.1" id="Vrstva_3" xmlns="http://www.w3.org/2000/svg" xmlns:xlink="http://www.w3.org/1999/xlink" x="0px" y="0px"
	 width="48px" height="48px" viewBox="0 0 48 48" enable-background="new 0 0 48 48" xml:space="preserve">
<path d="M8,44V29H5V18c0-2.2,1.8-4,4-4h6c2.2,0,4,1.8,4,4v11h-3v15H8z M40,44V32h6l-5.08-15.26C40.359,15.1,38.84,14,37.12,14h-0.24
	c-1.72,0-3.26,1.1-3.8,2.74L28,32h6v12H40z M12,12c2.22,0,4-1.78,4-4s-1.78-4-4-4S8,5.78,8,8S9.78,12,12,12z M37,12
	c2.221,0,4-1.78,4-4s-1.779-4-4-4s-4,1.78-4,4S34.779,12,37,12z M23,44h2V4h-2V44z"/>
</svg>
